X:1
T:Uns ist ein Kind geboren
T:Joachim a Burck
T:Source : Breitkopf & Härtel---Leipzig---R.Eitner---1898. First print : 20 Deutsche Liedlein zu 4 Stimmen---Erfurt---G.Baumann---1575. Editor : André Vierendeels (05/11/17). Notes : Original clefs : C1, C3, C3, F4 Editorial accidentals above the staff Text by Ludovico Helmbold (Christeliche Reimen)
T:Uns ist ein Kind geboren
T:©
T:©
T:©
C:Joachim a Burck
Z:©
%%score [ 1 2 3 4 ]
L:1/8
Q:1/4=120
M:4/4
K:C
V:1 treble nm="Soprano" snm="S"
V:2 treble nm="Alto" snm="A"
V:3 treble-8 nm="Tenor" snm="T"
V:4 bass nm="Bass" snm="B"
V:1
 G4 A4 | G2 A4 B2 | ABcA B2 AG | A2 G4 F2 | E2 E2 G2 G2 | A4 G4 | z2 d2 e4 | c4 d2 d2 | B4 A4- | %9
w: Uns ist|ein Kind ge-|bo- * * * * * *|* ren, uns|ist ein Kind ge-|bo- ren,|dess frewn|wir uns zu|hö- ren,|
w: Un- ser|Na- tur wird|ne- * * * * * *|* we, un-|ser Na- tur wird|ne- we,|weil Gott|ist so ge-|tre- we,|
 A2 A2 G4 | G2 G4 ^F2 | G2 FE A4 | G8- | G8 || z2 B2 B4 | B2 B4 B2 | c4 B2 d2 | e4 d2 c2- | %18
w: _ dess frewn|wir uns zu|hö- * * *|ren.|_|Sonst wä-|ren wir ver-|dor- ben, sonst|wä- ren wir|
w: _ weil Gott|is so ge-|tre- * * *|we.|_|Dass er|uns sei- nen|Sohn gibt, dass|er uns sei-|
 c2 B2 ABcA | Bc d2 G4 | z2 d4 c2- | c2 B4 A2- | A2 G2 F2 E2 | z2 A4 G2- | G2 ^F2 G2 A2- | %25
w: _ ver- dor- * * *|* * * ben,|ja e-|* wig- lich|_ ge- stror- ben,|ja e-|* wig- lich ge-|
w: * nen Sohn- * * *|* * * gibt,|der un-|* ser Fleisch|_ an sich nimpt,|der un-|* ser Fleisch an|
 A2 G3 F F2 | G8 |] %27
w: * stor- * *|ben.|
w: _ sich _ _|nimpt.|
V:2
 z4 z2 D2 | E4 C2 G2- | G2 F2 E4 | E2 D4 D2- | D2 C2 E2 D2 | D4 E4 | z4 G4 | A4 F4 | G2 G2 E4 | %9
w: Uns|ist ein Kind|_ ge- bo-|ren, uns ist|_ ein Kind ge-|bo- ren,|dess|frewn wir|uns zu hö-|
w: Lob|sey ins Him-|* mels- thro-|ne, Lob sey|_ ins Him- mels-|thro- ne,|dem|Va- ter|und dem Soh-|
 F4 D4 | E2 E2 A,2 A,2 | C4 F2 F2 | D2 E2 E2 E2 | D4 E4 || z2 G2 G4 | G2 G4 G2 | F4 G2 G2 | %17
w: ren, dess|frewn wir uns zu|hö- ren, dess|frewn wir uns zu|hö- ren.|Sonst wä-|ren wir ver-|dor- ben, sonst|
w: ne, dem|Va- ter und dem|Soh- ne, dem|Va- ter und dem|Soh- ne.|Sein Geist|sey bey uns|al- len, sein|
 G4 G2 G2- | G2 G2 EDEF | G4 D4 | D4 E3 F | G2 D2 D4- | D2 B,2 C4 | C2 D2 E4 | A,4 C2 C2 | %25
w: wä- ren wir|_ ver- dor- * * *|* ben,|ja e- *|* wig- lich|_ ge- stor-|ben, ja e-|wig- lich ge-|
w: Geist sey bey|uns al- * * * *|* len,|mit Fried _|_ und Wol-|* ge- fal-|len, mit Fried|und Wol- ge-|
 FEDC D4 | D8 |] %27
w: stor- * * * *|ben.|
w: fal- * * * *|len.|
V:3
 z8 | z4 z2 G2 | A4 G2 c2- | c2 B2 A4 | G4 z2 B2 | A4 B2 c2- | c2 B2 c4 | A4 z2 d2 | e2 d2 c4- | %9
w: |Uns|ist ein Kind|_ ge- bo-|ren, uns|ist ein Kind|_ ge- bo-|ren, dess|fewn wir uns|
 c2 d2 Bc d2- | dc c2 d2 d2 | e4 d4 | G2 c2 c2 BA | B4 c4 || z2 d2 d4 | d2 e4 d2 | c4 d2 B2 | %17
w: _ zu hö- * *|* * * ren, dess|frewn wir|uns zu hö- * *|* ren.|Sonst wä-|ren wir ver-|dor- ben, sonst|
 B4 B2 e2- | e2 d2 c4 | d4 z2 d2 | B4 A4 | G4 ^F4 | G4 A4 | z2 A2 B2 c2 | d4 e4 | d2 B2 A4 | G8 |] %27
w: wä- ren wir|_ ver- dor-|ben, ja|e- wig-|lich ge-|stor- ben,|ja e- wig-|lich ge-|stor- * *|ben.|
V:4
 z8 | z8 | z8 | z4 D,4 | E,4 C,2 G,2- | G,2 F,2 E,2 D,C, | D,4 C,4 | z8 | G,4 A,4 | F,4 G,2 G,2 | %10
w: |||uns|ist ein Kind|_ ge- bo- * *|* ren,||des frewn|wir uns zu|
 E,4 D,4 | z2 C,2 D,4 | B,,2 C,4 E,2 | G,4 C,4 || z2 G,2 G,4 | G,2 E,4 G,2 | A,4 G,2 G,2 | %17
w: hö- ren,|dess frewn|wir uns zu|hö- ren.|Sonst wä-|ren wir ver-|dor- ben, sonst|
 E,4 B,,2 C,2- |"^-natural" C,2 G,2 A,4 | G,8 | z8 |"^#""^#" z8 | z4 z2 A,2 | F,4 E,4 | D,4 C,4 | %25
w: wä- ren wir|_ ver- dor-|ben,|||ja|e- wig-|lich ge-|
 D,8 | G,,8 |] %27
w: stor-|ben.|

